X: 35
M:4/4
L:1/8
K:G
g2 ag fgag|fdde f2 af|gfgf g2 ag|fdcA BG G2|
g2 ag fgag|fdde f2 af|gfgf gbag|fdcA BGAF||

